X:1
T:Title
%%score ( 1 2 ) 3
L:1/8
Q:1/4=97
M:3/4
K:A
V:1 treble nm="Grand Piano, Soprano"
V:2 treble 
V:3 bass nm="Choir Pad, Bass"
V:1
 [CA]>[DB] [Ec]2 [Ec]>[Ec] | [Ec]2 [DB]>[CA] [FA]2 | [FA]>[DF] [FA]2 [EG]>[DF] | %3
w: By~William~Batchelder~Bradbury,~1864 * * * *|||
 [CE]2 [EA]>[EB] [Ac]2 | [EA]>[Ec] [EB]2 [^DB]>[DB] | [EB]2 [EA]>[EB] [Ec]2 | %6
w: |||
 [Ec]>[Ec] [Ec]2 [DB]>[CA] | [FA]2 [FA]>[DF] [FA]2 | [EG]>[DF] [CE]2 [EA]>[EB] | %9
w: |||
 [Ec]2 [EB]>[EA] [EB]2 | [EA]>[DG] [CA]2 [Ec]>[Ed] | e6 | [Gd]>[Ac] [Bd]4- | %13
w: ||||
 [Bd]2 [Ac]>[GB] [Ac]2 | [Ac]2 [GB]2 [Ge]>[Ge] | [Ge]2 [F^d]2 [Ge]2 | z2 e4- | e2 z2 z2 | z6 | %19
w: ||||||
 [Ac]>[Ac] [Ac]>[Ac] [A^d]>[Ad] | [A^d]>[Ad] [Ge]3 E | E2 [CA]>[DB] [Ec]2 | %22
w: |||
 [Ec]>[Ec] [Ec]2 [DB]>[CA] | [FA]2 [FA]>[DF] [FA]2 | [EG]>[DF] [CE]2 [EA]>[EB] | %25
w: |||
 [Ac]2 [EA]>[Ec] [EB]2 | [^DB]>[DB] [EB]2 [EA]>[EB] | [Ec]2 [Ec]>[Ec] [Ec]2 | %28
w: |||
 [DB]>[CA] [FA]2 [FA]>[DF] | [FA]2 [EG]>[DF] [CE]2 | [EA]>[EB] [Ec]2 [EB]>[EA] | %31
w: |||
 [EB]2 [EA]>[DG] [CA]2 |] %32
w: |
V:2
 x6 | x6 | x6 | x6 | x6 | x6 | x6 | x6 | x6 | x6 | x6 | E2 A>A A2 | x6 | x6 | x6 | x6 | %16
 [Ac]>[Ad] A2 A>A | A2 [Gd]>[Ac] [Bd]2- | [Bd]4 [Ac]>[GB] | x6 | x6 | x6 | x6 | x6 | x6 | x6 | x6 | %27
 x6 | x6 | x6 | x6 | x6 |] %32
V:3
 A,>A, A,2 A,>A, | A,2 [A,,A,]>[A,,A,] [D,A,]2 | [D,D]>[D,D] [D,D]2 [D,A,]>[D,A,] | %3
 [A,,A,]2 [A,C]>[A,D] [A,E]2 | [A,C]>A, [G,B,]2 [F,A,]>[F,A,] | [E,G,]>D, [C,A,]>[B,,G,] [A,,A,]2 | %6
 A,>A, A,2 [A,,A,]>[A,,A,] | [D,A,]2 [D,D]>[D,D] [D,D]2 | [D,A,]>[D,A,] [E,A,]2 [E,C]>[E,D] | %9
 [E,E]2 [E,D]>[E,C] [E,D]2 | [E,C]>[E,B,] [A,,A,]2 A,>[A,B,] | [A,C]2 [A,C]>[A,C] [A,C]2 | %12
 [E,B,]>[E,A,] [E,G,]2 [E,E]>[E,E] | [E,E]2 [E,E]>[E,E] [A,E]2 | [A,E]2 [E,E]2 [E,B,]>[G,B,] | %15
 B,2 [B,,B,]2 [E,B,]2 | A,>A, [A,C]2 [A,C]>[A,C] | [A,C]2 [E,B,]>[E,A,] [E,G,]2 | %18
 [E,E]>[E,E] [E,E]2 [E,E]>[E,E] | [A,E]>A, [F,A,]>[F,A,] B,>[A,B,] | [G,B,]>[F,B,] [E,B,]3 [E,G,] | %21
 [E,G,]2 A,>A, A,2 | A,>A, A,2 [A,,A,]>[A,,A,] | [D,A,]2 [D,D]>[D,D] [D,D]2 | %24
 [D,A,]>[D,A,] [A,,A,]2 [A,C]>[A,D] | [A,E]2 [A,C]>A, [G,B,]2 | %26
 [F,A,]>[F,A,] [E,G,]>D, [C,A,]>[B,,G,] | [A,,A,]2 A,>A, A,2 | %28
 [A,,A,]>[A,,A,] [D,A,]2 [D,D]>[D,D] | [D,D]2 [D,A,]>[D,A,] [E,A,]2 | %30
 [E,C]>[E,D] [E,E]2 [E,D]>[E,C] | [E,D]2 [E,C]>[E,B,] [A,,A,]2 |] %32

